bundles/org.openhab.ui.habpanel/web/assets/icons/smarthome-set/pet.svg

<?xml version="1.0" encoding="UTF-8" standalone="no"?>
<svg width="32px" height="32px" viewBox="0 0 32 32" version="1.1" xmlns="http://www.w3.org/2000/svg" xmlns:xlink="http://www.w3.org/1999/xlink" xmlns:sketch="http://www.bohemiancoding.com/sketch/ns">
    <!-- Generator: Sketch 3.3.2 (12043) - http://www.bohemiancoding.com/sketch -->
    <title>pet</title>
    <desc>Created with Sketch.</desc>
    <defs></defs>
    <g id="flatten" stroke="none" stroke-width="1" fill="none" fill-rule="evenodd" sketch:type="MSPage">
        <g id="z-copy" sketch:type="MSArtboardGroup" transform="translate(-68.000000, -132.000000)" fill="#000000">
            <g id="pet" sketch:type="MSLayerGroup" transform="translate(68.000000, 132.000000)">
                <path d="M16.0007763,13 C12.0109961,13 6,19.0892505 6,24 C6,27.2617667 7.00997974,29.1208776 8.82499033,29.7662147 C9.45069657,29.988688 9.96942636,30.0294381 10.7660826,30.0054647 C10.924372,30.0007013 10.9522461,30 11,30 C11.4187719,30 11.8389778,29.8631888 12.4190582,29.5954594 C12.6131218,29.5058916 12.8163217,29.4056584 13.1055904,29.2585726 C12.8987015,29.3637704 13.648312,28.981378 13.8222136,28.8944272 C14.4043657,28.6033511 14.849734,28.4039325 15.2703201,28.2554903 C15.5931545,28.1415488 15.8839516,28.0653108 16.1443897,28.0275167 L15.857617,28.0275824 C16.1181269,28.065265 16.4088284,28.1410713 16.7314328,28.2542579 C17.1521874,28.4018809 17.5976549,28.6001637 18.1799071,28.8895672 C18.3538186,28.9760084 19.1034435,29.3561455 18.8965444,29.251565 C19.1857873,29.3977674 19.3889636,29.4973959 19.5829892,29.5864163 C20.1625059,29.8523029 20.5822825,29.9881657 21,29.9881657 C21.0477539,29.9881657 21.075628,29.988867 21.2339174,29.9936304 C22.0305736,30.0176038 22.5493034,29.9768537 23.1750097,29.7543804 C24.9900203,29.1090433 26,27.2499324 26,23.9881657 C26,19.0781437 19.9918528,13 16.0007763,13 Z M16.0007763,15 C18.8820645,15 24,20.1775609 24,23.9881657 C24,26.4783989 23.4209523,27.5442756 22.5049903,27.869951 C22.1774054,27.9864256 21.8581109,28.0115086 21.2940753,27.9945353 C21.1086462,27.9889553 21.077265,27.9881657 21,27.9881657 C20.8592255,27.9881657 20.8669217,27.9916967 19.0700929,27.0985983 C18.4202022,26.7755758 17.907419,26.5473299 17.3935672,26.3670436 C16.9565409,26.2137117 16.543301,26.105951 16.1439359,26.0481831 L16.0005449,26.0274417 L15.8571633,26.0482489 C15.4568362,26.1063433 15.0426702,26.2149248 14.6046799,26.3695097 C14.0906595,26.5509286 13.5777771,26.7805774 12.9277864,27.1055728 C11.1333608,28.0027856 11.1393963,28 11,28 C10.922735,28 10.8913538,28.0007896 10.7059247,28.0063696 C10.1418891,28.0233429 9.82259459,27.99826 9.49500967,27.8817853 C8.57904769,27.5561099 8,26.4902333 8,24 C8,20.1880708 13.1213977,15 16.0007763,15 Z M11.0562214,11.3454545 C13.2244287,10.7644851 14.1321138,6.90061921 13.4656178,4.41322225 C12.8764843,2.21454599 10.6165179,0.909753795 8.41784164,1.49888733 C6.21916537,2.08802086 4.91437318,4.34798723 5.50350671,6.54666349 C6.17000271,9.03406045 8.88801397,11.9264239 11.0562214,11.3454545 L11.0562214,11.3454545 Z M10.5385833,9.41360285 C9.76216211,9.62164427 7.85387333,7.59094453 7.43535836,6.0290254 C7.13210845,4.89728134 7.80373567,3.73398889 8.93547973,3.43073898 C10.0672238,3.12748907 11.2305162,3.79911628 11.5337662,4.93086035 C11.9522811,6.49277947 11.3150044,9.20556142 10.5385833,9.41360285 L10.5385833,9.41360285 Z M6.01279285,17.3728691 C7.68962517,16.4052244 7.58758727,13.1234188 6.5122274,11.2617546 C5.54860652,9.59353306 3.41441294,9.02195815 1.74537262,9.98510631 C0.0763322982,10.9482545 -0.495523148,13.0814011 0.46809773,14.7496227 C1.5434576,16.6112869 4.33596053,18.3405137 6.01279285,17.3728691 Z M4.91988375,15.6408183 C4.49171541,15.8880214 2.70572919,14.7815262 2.10995943,13.7496227 C1.69909601,13.0379864 1.94292062,12.1280205 2.65455693,11.7171571 C3.36619325,11.3062937 4.27615907,11.5501183 4.68702249,12.2617546 C5.28279225,13.2936581 5.34805209,15.3936152 4.91988375,15.6408183 Z M19.9437786,11.3454545 C22.111986,11.9264239 24.8299973,9.03406045 25.4964933,6.54666349 C26.0856268,4.34798723 24.7808346,2.08802086 22.5821584,1.49888733 C20.3834821,0.909753795 18.1235157,2.21454599 17.5343822,4.41322225 C16.8678862,6.90061921 17.7755713,10.7644851 19.9437786,11.3454545 Z M20.4614167,9.41360285 C19.6849956,9.20556142 19.0477189,6.49277947 19.4662338,4.93086035 C19.7694838,3.79911628 20.9327762,3.12748907 22.0645203,3.43073898 C23.1962643,3.73398889 23.8678915,4.89728134 23.5646416,6.0290254 C23.1461267,7.59094453 21.2378379,9.62164427 20.4614167,9.41360285 Z M25.984045,17.3627988 C27.6566508,18.329057 30.4408914,16.6030665 31.5131744,14.7447047 C32.4741785,13.0791993 31.903876,10.9495257 30.2393681,9.9879457 C28.5748603,9.02636568 26.4464623,9.59700999 25.4854583,11.2625154 C24.4131752,13.1208773 24.3114392,16.3965406 25.984045,17.3627988 Z M27.0924876,15.630748 C26.6667207,15.3849314 26.7317897,13.2911165 27.3256528,12.2625154 C27.7349481,11.5535952 28.6414408,11.3107012 29.350361,11.7199965 C30.0592812,12.1292918 30.3021752,13.0357845 29.89288,13.7447047 C29.2990168,14.7733058 27.5182545,15.8765646 27.0924876,15.630748 Z" sketch:type="MSShapeGroup"></path>
            </g>
        </g>
    </g>
</svg>

<svg width="32" height="32" xmlns="http://www.w3.org/2000/svg"><path d="M16 13c-3.989 0-10 6.09-10 11 0 3.262 1.01 5.12 2.825 5.766.626.223 1.144.263 1.941.24C10.924 30 10.952 30 11 30c.419 0 .839-.137 1.42-.405.193-.09.396-.19.686-.336-.207.105.542-.278.716-.365.582-.29 1.028-.49 1.448-.639.323-.113.614-.19.874-.227h-.286c.26.037.55.113.873.226.421.148.867.346 1.449.636.174.086.923.466.717.362.289.146.492.245.686.334.58.266 1 .402 1.417.402.048 0 .076 0 .234.006.797.024 1.315-.017 1.941-.24C24.99 29.11 26 27.25 26 23.988 26 19.078 19.992 13 16 13Zm0 2c2.882 0 8 5.178 8 8.988 0 2.49-.579 3.556-1.495 3.882-.328.116-.647.142-1.21.125a8.233 8.233 0 0 0-.295-.007c-.14 0-.133.004-1.93-.89a14.528 14.528 0 0 0-1.676-.731 6.664 6.664 0 0 0-1.25-.319l-.143-.02-.144.02c-.4.058-.814.167-1.252.322-.514.18-1.027.41-1.677.736-1.795.897-1.789.894-1.928.894-.077 0-.109 0-.294.006-.564.017-.883-.008-1.211-.124C8.579 27.556 8 26.49 8 24c0-3.812 5.121-9 8-9Zm-4.944-3.655c2.168-.58 3.076-4.444 2.41-6.932a4.121 4.121 0 1 0-7.962 2.134c.666 2.487 3.384 5.38 5.552 4.798Zm-.517-1.931c-.777.208-2.685-1.823-3.104-3.385a2.121 2.121 0 1 1 4.099-1.098c.418 1.562-.219 4.275-.995 4.483Zm-4.526 7.959c1.677-.968 1.575-4.25.5-6.111a3.49 3.49 0 0 0-4.768-1.277A3.487 3.487 0 0 0 .468 14.75c1.075 1.861 3.868 3.59 5.545 2.623ZM4.92 15.64c-.428.247-2.214-.86-2.81-1.891a1.488 1.488 0 0 1 2.577-1.488c.596 1.032.661 3.132.233 3.379Zm15.024-4.296c2.168.581 4.886-2.31 5.552-4.798a4.121 4.121 0 0 0-7.962-2.134c-.666 2.488.242 6.351 2.41 6.932Zm.517-1.931c-.776-.208-1.413-2.921-.995-4.483a2.121 2.121 0 0 1 4.099 1.098c-.419 1.562-2.327 3.593-3.104 3.385Zm5.523 7.949c1.673.966 4.457-.76 5.53-2.618a3.483 3.483 0 0 0-1.275-4.757 3.479 3.479 0 0 0-4.754 1.275c-1.072 1.858-1.174 5.134.499 6.1Zm1.108-1.732c-.425-.246-.36-2.34.234-3.368a1.482 1.482 0 1 1 2.567 1.482c-.594 1.028-2.375 2.132-2.8 1.886Z" fill="#000" fill-rule="evenodd"/></svg>
